X:275
T:The Lanky Long Legs Mazurka
Z:Jack Campin, http://www.campin.me.uk/
F:Jack Campin's Nine-Note Tunebook
% last edit 03-02-2013
S:Frank Creenaune
A:Gilgandra, New South Wales, Australia
Z:Transcribed into ABC by John Furlonger
N:Middle section taken down an octave
M:3/4
L:1/8
Q:1/4=140
K:D % original key
  d>c|B2 A2    d>c|B2 A2    d>c|B>F G>D   F>G|E4
  c>B|A2 E2    c>B|A2 E2    c>B|A>G F2    E2 |D4||
|:A>D|F2 F2    D>F|A2 A>B (3AFD|E2  E>G   F>E|D4:|
|:d>c|B2 B>c (3dcB|A2 A2    D>E|F2  F2 [1 B>A|F4:|\
                                       [2 E2 |D4||

